assets/business-color/BusinessColor18.svg

<svg xmlns="http://www.w3.org/2000/svg" id="Layer_1" x="0" y="0" version="1.1" viewBox="0 0 256 256" xml:space="preserve"><style>.st0{fill:#fff}.st1{fill:#48386a}.st2{fill:#9feaff}</style><path d="M39.3 142.2V3.8h152.3v223.3H39.3v-72z" class="st0"/><path d="M216.7 72v180.2H64.4v-12.6h139.8V28.9h12.5v35z" class="st0"/><path d="M39.3 151.8c-.6 0-1-.4-1-1v-2.7c0-.6.4-1 1-1s1 .4 1 1v2.7c0 .6-.5 1-1 1z" class="st1"/><path d="M191.6 228.1H39.3c-.6 0-1-.4-1-1v-72c0-.6.4-1 1-1s1 .4 1 1v71h150.3V4.8H40.3v137.4c0 .6-.4 1-1 1s-1-.4-1-1V3.8c0-.6.4-1 1-1h152.3c.6 0 1 .4 1 1v223.3c0 .6-.4 1-1 1z" class="st1"/><path d="M207.2 16.4v223.2H54.8v-12.5h139.8V16.4z" class="st2"/><path d="M204.2 240.6H51.8c-.6 0-1-.4-1-1v-12.5c0-.6.4-1 1-1h138.8V16.4c0-.6.4-1 1-1h12.5c.6 0 1 .4 1 1v223.3c.1.5-.4.9-.9.9zm-151.4-2h150.3V17.4h-10.5v209.8c0 .6-.4 1-1 1H52.8v10.4z" class="st1"/><path d="M216.7 253.2H64.4c-.6 0-1-.4-1-1v-12.5c0-.6.4-1 1-1h138.8V28.9c0-.6.4-1 1-1h12.5c.6 0 1 .4 1 1v35c0 .6-.4 1-1 1s-1-.4-1-1v-34h-10.5v209.7c0 .6-.4 1-1 1H65.4v10.5h150.3V72c0-.6.4-1 1-1s1 .4 1 1v180.2c0 .5-.4 1-1 1zM180.9 39.4h-131c-.6 0-1-.4-1-1v-22c0-.6.4-1 1-1h131c.6 0 1 .4 1 1v22c0 .5-.4 1-1 1zm-130-2h129v-20h-129v20z" class="st1"/><path d="M134.4 21.5h43.9v11.6H58.5V21.5h67.9z" class="st2"/><path d="M112.7 57.1h11.6v119.8h-11.6z" class="st2" transform="rotate(90 118.466 117.007)"/><path d="M145.1 144.8h33.3V209H124v-64.2h13zM82.6 64.8c.7 1.6 1.1 3.3 1.1 5.2 0 7-5.7 12.8-12.8 12.8S58.2 77.1 58.2 70 63.9 57.3 71 57.3c3.2 0 6.1 1.2 8.3 3.1l3.3 4.4z" class="st2"/><path d="M175.3 33.6H55.5c-.3 0-.5-.2-.5-.5V21.5c0-.3.2-.5.5-.5h67.9c.3 0 .5.2.5.5s-.2.5-.5.5H56v10.6h118.8V22h-43.5c-.3 0-.5-.2-.5-.5s.2-.5.5-.5h44c.3 0 .5.2.5.5v11.6c0 .3-.2.5-.5.5zM181 129H50c-.6 0-1-.4-1-1v-22c0-.6.4-1 1-1h70.5c.6 0 1 .4 1 1s-.4 1-1 1H51v20h129v-20h-52c-.6 0-1-.4-1-1s.4-1 1-1h53c.6 0 1 .4 1 1v22c0 .6-.5 1-1 1z" class="st1"/><path d="M175.4 123.3H55.5c-.3 0-.5-.2-.5-.5v-11.6c0-.3.2-.5.5-.5h119.8c.3 0 .5.2.5.5v11.6c.1.3-.1.5-.4.5zm-119.4-1h118.8v-10.6H56v10.6zM181 215.2h-65.5c-.6 0-1-.4-1-1v-74.6c0-.6.4-1 1-1H181c.6 0 1 .4 1 1v51.6c0 .6-.4 1-1 1s-1-.4-1-1v-50.6h-63.5v72.6H180v-11c0-.6.4-1 1-1s1 .4 1 1v12c0 .6-.5 1-1 1z" class="st1"/><path d="M175.4 209.5H121c-.3 0-.5-.2-.5-.5v-64.2c0-.3.2-.5.5-.5h13c.3 0 .5.2.5.5s-.2.5-.5.5h-12.5v63.2h53.3v-63.2H142c-.3 0-.5-.2-.5-.5s.2-.5.5-.5h33.3c.3 0 .5.2.5.5V209c.1.2-.1.5-.4.5zM68 89c-2.9 0-5.6-.6-8.2-1.8-.5-.2-.7-.8-.5-1.3.2-.5.8-.7 1.3-.5 2.3 1.1 4.7 1.6 7.3 1.6 9.4 0 17-7.6 17-17s-7.6-17-17-17-17 7.6-17 17c0 4.7 1.9 9.1 5.3 12.3.4.4.4 1 0 1.4-.4.4-1 .4-1.4 0C51.1 80.1 49 75.3 49 70c0-10.5 8.5-19 19-19s19 8.5 19 19-8.6 19-19 19z" class="st1"/><path d="M68 83.3c-7.3 0-13.3-5.9-13.3-13.3S60.6 56.8 68 56.8c3.2 0 6.3 1.1 8.7 3.2.2.2.2.5.1.7-.2.2-.5.2-.7.1-2.2-1.9-5.1-3-8-3-6.8 0-12.3 5.5-12.3 12.3S61.2 82.3 68 82.3 80.2 76.8 80.2 70c0-1.7-.4-3.4-1.1-5-.1-.3 0-.5.3-.7.3-.1.5 0 .7.3.8 1.7 1.1 3.5 1.1 5.4 0 7.3-5.9 13.3-13.2 13.3zM181 53H98.4c-.6 0-1-.4-1-1s.4-1 1-1H181c.6 0 1 .4 1 1s-.5 1-1 1zM181 89H98.4c-.6 0-1-.4-1-1s.4-1 1-1H181c.6 0 1 .4 1 1s-.5 1-1 1zM181 71h-78.2c-.6 0-1-.4-1-1s.4-1 1-1H181c.6 0 1 .4 1 1s-.5 1-1 1zM98.6 140.1H50c-.3 0-.5-.2-.5-.5s.2-.5.5-.5h48.7c.3 0 .5.2.5.5s-.3.5-.6.5zM105.6 154.9H50c-.3 0-.5-.2-.5-.5s.2-.5.5-.5h55.6c.3 0 .5.2.5.5s-.2.5-.5.5zM98.6 169.7H50c-.3 0-.5-.2-.5-.5s.2-.5.5-.5h48.7c.3 0 .5.2.5.5s-.3.5-.6.5zM91.7 184.5H50c-.3 0-.5-.2-.5-.5s.2-.5.5-.5h41.7c.3 0 .5.2.5.5s-.3.5-.5.5zM105.6 199.3H50c-.3 0-.5-.2-.5-.5s.2-.5.5-.5h55.6c.3 0 .5.2.5.5s-.2.5-.5.5zM99.7 214.1H73.5c-.3 0-.5-.2-.5-.5s.2-.5.5-.5h26.1c.3 0 .5.2.5.5s-.2.5-.4.5zM66.3 214.1H54c-.3 0-.5-.2-.5-.5s.2-.5.5-.5h12.3c.3 0 .5.2.5.5s-.3.5-.5.5z" class="st1"/></svg>

<svg xmlns="http://www.w3.org/2000/svg" id="Layer_1" x="0" y="0" enable-background="new 0 0 256 256" version="1.1" viewBox="0 0 256 256" xml:space="preserve"><style>.st0{fill:#FFFFFF;}
	.st1{fill:#48386A;}
	.st2{fill:#9FEAFF;}</style><path d="M39.3 142.2 39.3 3.8 191.6 3.8 191.6 227.1 39.3 227.1 39.3 155.1z" class="st0"/><path d="M216.7 72 216.7 252.2 64.4 252.2 64.4 239.6 204.2 239.6 204.2 28.9 216.7 28.9 216.7 63.9z" class="st0"/><path d="M39.3 151.8c-.6 0-1-.4-1-1v-2.7c0-.6.4-1 1-1s1 .4 1 1v2.7c0 .6-.5 1-1 1z" class="st1"/><path d="M191.6 228.1H39.3c-.6 0-1-.4-1-1v-72c0-.6.4-1 1-1s1 .4 1 1v71h150.3V4.8H40.3v137.4c0 .6-.4 1-1 1s-1-.4-1-1V3.8c0-.6.4-1 1-1h152.3c.6 0 1 .4 1 1v223.3c0 .6-.4 1-1 1z" class="st1"/><path d="M207.2 16.4 207.2 239.6 54.8 239.6 54.8 227.1 194.6 227.1 194.6 16.4z" class="st2"/><path d="M204.2 240.6H51.8c-.6 0-1-.4-1-1v-12.5c0-.6.4-1 1-1h138.8V16.4c0-.6.4-1 1-1h12.5c.6 0 1 .4 1 1v223.3c.1.5-.4.9-.9.9zm-151.4-2h150.3V17.4h-10.5v209.8c0 .6-.4 1-1 1H52.8v10.4z" class="st1"/><path d="M216.7 253.2H64.4c-.6 0-1-.4-1-1v-12.5c0-.6.4-1 1-1h138.8V28.9c0-.6.4-1 1-1h12.5c.6 0 1 .4 1 1v35c0 .6-.4 1-1 1s-1-.4-1-1v-34h-10.5v209.7c0 .6-.4 1-1 1H65.4v10.5h150.3V72c0-.6.4-1 1-1s1 .4 1 1v180.2c0 .5-.4 1-1 1zM180.9 39.4h-131c-.6 0-1-.4-1-1v-22c0-.6.4-1 1-1h131c.6 0 1 .4 1 1v22c0 .5-.4 1-1 1zm-130-2h129v-20h-129v20z" class="st1"/><path d="M134.4 21.5 178.3 21.5 178.3 33.1 58.5 33.1 58.5 21.5 126.4 21.5z" class="st2"/><path d="M112.7 57.1H124.3V176.9H112.7z" class="st2" transform="rotate(90 118.466 117.007)"/><path d="M145.1 144.8 178.4 144.8 178.4 209 124 209 124 144.8 137 144.8z" class="st2"/><path d="M82.6 64.8c.7 1.6 1.1 3.3 1.1 5.2 0 7-5.7 12.8-12.8 12.8S58.2 77.1 58.2 70 63.9 57.3 71 57.3c3.2 0 6.1 1.2 8.3 3.1l3.3 4.4z" class="st2"/><path d="M175.3 33.6H55.5c-.3 0-.5-.2-.5-.5V21.5c0-.3.2-.5.5-.5h67.9c.3 0 .5.2.5.5s-.2.5-.5.5H56v10.6h118.8V22h-43.5c-.3 0-.5-.2-.5-.5s.2-.5.5-.5h44c.3 0 .5.2.5.5v11.6c0 .3-.2.5-.5.5zM181 129H50c-.6 0-1-.4-1-1v-22c0-.6.4-1 1-1h70.5c.6 0 1 .4 1 1s-.4 1-1 1H51v20h129v-20h-52c-.6 0-1-.4-1-1s.4-1 1-1h53c.6 0 1 .4 1 1v22c0 .6-.5 1-1 1z" class="st1"/><path d="M175.4 123.3H55.5c-.3 0-.5-.2-.5-.5v-11.6c0-.3.2-.5.5-.5h119.8c.3 0 .5.2.5.5v11.6c.1.3-.1.5-.4.5zm-119.4-1h118.8v-10.6H56v10.6zM181 215.2h-65.5c-.6 0-1-.4-1-1v-74.6c0-.6.4-1 1-1H181c.6 0 1 .4 1 1v51.6c0 .6-.4 1-1 1s-1-.4-1-1v-50.6h-63.5v72.6H180v-11c0-.6.4-1 1-1s1 .4 1 1v12c0 .6-.5 1-1 1z" class="st1"/><path d="M175.4 209.5H121c-.3 0-.5-.2-.5-.5v-64.2c0-.3.2-.5.5-.5h13c.3 0 .5.2.5.5s-.2.5-.5.5h-12.5v63.2h53.3v-63.2H142c-.3 0-.5-.2-.5-.5s.2-.5.5-.5h33.3c.3 0 .5.2.5.5V209c.1.2-.1.5-.4.5zM68 89c-2.9 0-5.6-.6-8.2-1.8-.5-.2-.7-.8-.5-1.3.2-.5.8-.7 1.3-.5 2.3 1.1 4.7 1.6 7.3 1.6 9.4 0 17-7.6 17-17s-7.6-17-17-17-17 7.6-17 17c0 4.7 1.9 9.1 5.3 12.3.4.4.4 1 0 1.4-.4.4-1 .4-1.4 0C51.1 80.1 49 75.3 49 70c0-10.5 8.5-19 19-19s19 8.5 19 19-8.6 19-19 19z" class="st1"/><path d="M68 83.3c-7.3 0-13.3-5.9-13.3-13.3S60.6 56.8 68 56.8c3.2 0 6.3 1.1 8.7 3.2.2.2.2.5.1.7-.2.2-.5.2-.7.1-2.2-1.9-5.1-3-8-3-6.8 0-12.3 5.5-12.3 12.3S61.2 82.3 68 82.3 80.2 76.8 80.2 70c0-1.7-.4-3.4-1.1-5-.1-.3 0-.5.3-.7.3-.1.5 0 .7.3.8 1.7 1.1 3.5 1.1 5.4 0 7.3-5.9 13.3-13.2 13.3zM181 53H98.4c-.6 0-1-.4-1-1s.4-1 1-1H181c.6 0 1 .4 1 1s-.5 1-1 1zM181 89H98.4c-.6 0-1-.4-1-1s.4-1 1-1H181c.6 0 1 .4 1 1s-.5 1-1 1zM181 71h-78.2c-.6 0-1-.4-1-1s.4-1 1-1H181c.6 0 1 .4 1 1s-.5 1-1 1zM98.6 140.1H50c-.3 0-.5-.2-.5-.5s.2-.5.5-.5h48.7c.3 0 .5.2.5.5s-.3.5-.6.5zM105.6 154.9H50c-.3 0-.5-.2-.5-.5s.2-.5.5-.5h55.6c.3 0 .5.2.5.5s-.2.5-.5.5zM98.6 169.7H50c-.3 0-.5-.2-.5-.5s.2-.5.5-.5h48.7c.3 0 .5.2.5.5s-.3.5-.6.5zM91.7 184.5H50c-.3 0-.5-.2-.5-.5s.2-.5.5-.5h41.7c.3 0 .5.2.5.5s-.3.5-.5.5zM105.6 199.3H50c-.3 0-.5-.2-.5-.5s.2-.5.5-.5h55.6c.3 0 .5.2.5.5s-.2.5-.5.5zM99.7 214.1H73.5c-.3 0-.5-.2-.5-.5s.2-.5.5-.5h26.1c.3 0 .5.2.5.5s-.2.5-.4.5zM66.3 214.1H54c-.3 0-.5-.2-.5-.5s.2-.5.5-.5h12.3c.3 0 .5.2.5.5s-.3.5-.5.5z" class="st1"/></svg>
